X:413
T:Besom In Bloom, The
R:jig
Z:hn-jig-413
M:6/8
L:1/8
K:Dmix
FED F2D | GED D2A | FED FGA | ~G3 AGE |
FED FGA | AFA ~f3 | ded cAF |1 AGF G2E :|2 AGF G2A ||
|: ~B3 BAG | ABG A2G | FED E~F2 | GED ~D3 |
B2B BAG | ABG ABc | ded cAF |1 AGF G2A :|2 AGF G2E ||
P:variations
|: FED ~F3 | GED D2E | FED FGA | GFG AGE |
FED ~F3 | AFA f2e | ded cAF |1 AGF ~G3 :|2 AGF G2A ||
|: B3 BAG | ABG A2G | FED FGA | GED ~D3 |
~B3 BAG | ABG ABc | ded cAF | AGF G3 :|

